assets/icons/ui/calendar.svg

<svg width="20" height="20" viewBox="0 0 20 20" fill="none" xmlns="http://www.w3.org/2000/svg">
<mask id="mask0_71_3918" style="mask-type:alpha" maskUnits="userSpaceOnUse" x="0" y="0" width="20" height="20">
<rect width="20" height="20" fill="#D9D9D9"/>
</mask>
<g mask="url(#mask0_71_3918)">
<path d="M4.42311 17.9167C4.00214 17.9167 3.64582 17.7708 3.35416 17.4792C3.06249 17.1875 2.91666 16.8312 2.91666 16.4102V5.25647C2.91666 4.8355 3.06249 4.47918 3.35416 4.18751C3.64582 3.89585 4.00214 3.75001 4.42311 3.75001H5.57686V2.62814C5.57686 2.4455 5.63805 2.293 5.76041 2.17064C5.88277 2.04842 6.03527 1.9873 6.21791 1.9873C6.40068 1.9873 6.55318 2.04842 6.67541 2.17064C6.79777 2.293 6.85895 2.4455 6.85895 2.62814V3.75001H13.1731V2.6123C13.1731 2.43494 13.2329 2.2864 13.3525 2.16668C13.4722 2.0471 13.6208 1.9873 13.7981 1.9873C13.9755 1.9873 14.1239 2.0471 14.2435 2.16668C14.3633 2.2864 14.4231 2.43494 14.4231 2.6123V3.75001H15.5769C15.9978 3.75001 16.3542 3.89585 16.6458 4.18751C16.9375 4.47918 17.0833 4.8355 17.0833 5.25647V16.4102C17.0833 16.8312 16.9375 17.1875 16.6458 17.4792C16.3542 17.7708 15.9978 17.9167 15.5769 17.9167H4.42311ZM4.42311 16.6667H15.5769C15.641 16.6667 15.6998 16.6399 15.7531 16.5865C15.8066 16.5331 15.8333 16.4744 15.8333 16.4102V8.5898H4.16666V16.4102C4.16666 16.4744 4.19339 16.5331 4.24687 16.5865C4.3002 16.6399 4.35895 16.6667 4.42311 16.6667ZM4.16666 7.3398H15.8333V5.25647C15.8333 5.1923 15.8066 5.13355 15.7531 5.08022C15.6998 5.02675 15.641 5.00001 15.5769 5.00001H4.42311C4.35895 5.00001 4.3002 5.02675 4.24687 5.08022C4.19339 5.13355 4.16666 5.1923 4.16666 5.25647V7.3398Z" fill="#3A2010"/>
</g>
</svg>

<svg xmlns="http://www.w3.org/2000/svg" width="20" height="20" fill="none" viewBox="0 0 20 20"><mask id="a" width="20" height="20" x="0" y="0" maskUnits="userSpaceOnUse" style="mask-type:alpha"><path fill="#d9d9d9" d="M0 0h20v20H0z"/></mask><g mask="url(#a)"><path fill="#3a2010" d="M4.423 17.917q-.63 0-1.069-.438a1.45 1.45 0 0 1-.437-1.069V5.256q0-.63.437-1.068a1.45 1.45 0 0 1 1.07-.438h1.153V2.628a.62.62 0 0 1 .183-.457.62.62 0 0 1 .458-.184.62.62 0 0 1 .457.184.62.62 0 0 1 .184.457V3.75h6.314V2.612q0-.266.18-.445.18-.18.445-.18.267 0 .445.18.18.18.18.445V3.75h1.154q.63 0 1.069.438.437.437.437 1.068V16.41q0 .631-.437 1.07a1.45 1.45 0 0 1-1.07.437zm0-1.25h11.154a.25.25 0 0 0 .176-.08.25.25 0 0 0 .08-.177V8.59H4.167v7.82q0 .096.08.177t.176.08M4.167 7.34h11.666V5.256a.24.24 0 0 0-.08-.176.25.25 0 0 0-.176-.08H4.423a.25.25 0 0 0-.176.08.25.25 0 0 0-.08.176z"/></g></svg>
